src/assets/svg/investment-2.svg

<svg width="43" height="42" viewBox="0 0 43 42" fill="none" xmlns="http://www.w3.org/2000/svg">
<path fill-rule="evenodd" clip-rule="evenodd" d="M15.928 18.7455C15.7999 18.8239 15.6886 18.9268 15.6003 19.0483C15.5121 19.1697 15.4486 19.3074 15.4136 19.4534C15.3786 19.5994 15.3727 19.7509 15.3962 19.8992C15.4198 20.0475 15.4724 20.1897 15.5509 20.3176C16.6009 22.0291 17.4932 23.728 18.0873 25.2716C18.1961 25.5544 18.4128 25.7825 18.6897 25.9056C18.9667 26.0287 19.2812 26.0367 19.564 25.928C19.8469 25.8192 20.075 25.6025 20.1981 25.3255C20.3211 25.0486 20.3292 24.7341 20.2204 24.4513C19.56 22.7329 18.5912 20.9037 17.4989 19.1225C17.3406 18.8642 17.0861 18.6794 16.7915 18.6087C16.4969 18.538 16.1863 18.5872 15.928 18.7455ZM27.8262 17.6555C28.0706 17.8344 28.2341 18.103 28.2805 18.4023C28.327 18.7016 28.2528 19.0071 28.0741 19.2516C26.7522 21.0603 25.588 23.479 24.7688 25.3253C24.7079 25.4624 24.6205 25.5862 24.5118 25.6896C24.403 25.793 24.275 25.8739 24.1349 25.9278C23.9949 25.9817 23.8456 26.0075 23.6956 26.0037C23.5456 25.9999 23.3978 25.9666 23.2607 25.9057C23.1235 25.8448 22.9997 25.7574 22.8963 25.6487C22.793 25.5399 22.712 25.4119 22.6581 25.2718C22.6042 25.1318 22.5784 24.9825 22.5822 24.8325C22.586 24.6825 22.6193 24.5347 22.6803 24.3976C23.5074 22.5352 24.7528 19.9234 26.2301 17.9035C26.4089 17.659 26.6775 17.4956 26.9768 17.4491C27.2761 17.4026 27.5816 17.4769 27.8262 17.6555Z" fill="#00C700"/>
<path fill-rule="evenodd" clip-rule="evenodd" d="M25.1417 7.76654C27.8174 4.70687 42.1252 0.869141 42.1252 0.869141C42.1252 0.869141 39.6928 16.1732 37.5529 18.6205C35.959 20.444 30.8805 19.3049 28.3921 18.6045C30.2522 15.7516 32.4081 12.965 34.3035 10.7531C34.4969 10.5226 34.5916 10.2251 34.567 9.92529C34.5424 9.62543 34.4005 9.34738 34.1721 9.1515C33.9437 8.95563 33.6473 8.85774 33.3472 8.87909C33.0471 8.90044 32.7675 9.0393 32.5692 9.26553C30.6578 11.4957 28.4424 14.3497 26.5024 17.3169C25.4124 15.2878 23.0257 10.1864 25.1417 7.76654ZM6.58712 28.2896H0.874512V41.9999H6.58712V39.6657C7.75249 39.6177 9.47312 39.556 10.0684 39.58C12.1101 39.6634 13.633 40.1502 15.1754 40.6426C16.6127 41.1007 18.0649 41.5646 19.9649 41.7097C20.4425 41.7463 20.9075 41.7931 21.3588 41.8377C22.9846 42.0022 24.4276 42.1484 25.6204 41.7097C27.1422 41.1499 35.8414 36.8917 36.929 35.7709C38.0167 34.6512 37.4729 31.6258 34.1013 32.1856C32.4378 32.4621 30.5104 33.2573 28.7612 33.9783C26.9663 34.7175 25.3599 35.3801 24.423 35.323C22.5744 35.211 17.6821 34.3153 17.6821 34.3153L23.2999 34.3839C23.2999 34.3839 24.094 34.425 25.1851 33.6424C26.2762 32.8597 27.2508 30.617 25.6192 30.617C23.9877 30.617 22.2488 30.0571 22.2488 30.0571L15.2886 28.4884C15.2886 28.4884 12.8961 28.0406 11.9181 28.4884C11.1115 28.8575 7.7502 30.0617 6.58712 30.4764V28.2896ZM4.16269 5.06219C4.16269 5.06219 15.9706 8.22926 18.178 10.7531C19.8838 12.7034 18.0455 16.765 17.12 18.5131C15.9071 16.6084 14.5976 14.7669 13.1966 12.9959C13.1037 12.8781 12.9884 12.7798 12.8575 12.7065C12.7265 12.6333 12.5824 12.5865 12.4334 12.569C12.2844 12.5514 12.1334 12.5634 11.989 12.6042C11.8446 12.645 11.7097 12.7138 11.5919 12.8068C11.4741 12.8997 11.3758 13.015 11.3026 13.1459C11.2293 13.2768 11.1826 13.4209 11.165 13.5699C11.1475 13.719 11.1595 13.87 11.2003 14.0143C11.2411 14.1587 11.3099 14.2937 11.4028 14.4114C12.7645 16.1329 14.0367 17.9233 15.2143 19.7756C13.0801 20.3537 9.19321 21.15 7.93643 19.7116C6.1701 17.6916 4.16269 5.06105 4.16269 5.06105" fill="#00C700"/>
</svg>

<svg xmlns="http://www.w3.org/2000/svg" width="43" height="42" fill="none"><path fill="#00C700" fill-rule="evenodd" d="M15.928 18.746a1.14 1.14 0 0 0-.377 1.572c1.05 1.711 1.942 3.41 2.536 4.954a1.143 1.143 0 0 0 2.133-.82c-.66-1.72-1.629-3.548-2.721-5.33a1.14 1.14 0 0 0-1.571-.377m11.898-1.09a1.143 1.143 0 0 1 .248 1.596c-1.322 1.808-2.486 4.227-3.305 6.073a1.144 1.144 0 0 1-2.089-.927c.827-1.863 2.073-4.475 3.55-6.494a1.14 1.14 0 0 1 1.596-.248" clip-rule="evenodd"/><path fill="#00C700" fill-rule="evenodd" d="M25.142 7.767C27.817 4.707 42.125.869 42.125.869s-2.432 15.304-4.572 17.752c-1.594 1.823-6.672.684-9.16-.016 1.86-2.853 4.015-5.64 5.91-7.852a1.143 1.143 0 0 0-1.734-1.487c-1.911 2.23-4.127 5.084-6.067 8.05-1.09-2.028-3.476-7.13-1.36-9.55M6.587 28.29H.875V42h5.712v-2.334c1.165-.048 2.886-.11 3.481-.086 2.042.083 3.565.57 5.107 1.063 1.438.458 2.89.922 4.79 1.067.477.036.942.083 1.394.128 1.626.164 3.069.31 4.261-.128 1.522-.56 10.221-4.818 11.309-5.94 1.088-1.119.544-4.144-2.828-3.584-1.663.276-3.59 1.071-5.34 1.792-1.795.74-3.401 1.402-4.338 1.345-1.849-.112-6.74-1.008-6.74-1.008l5.617.069s.794.041 1.885-.742c1.091-.782 2.066-3.025.434-3.025s-3.37-.56-3.37-.56l-6.96-1.569s-2.393-.447-3.37 0c-.808.37-4.169 1.574-5.332 1.988zM4.163 5.062S15.97 8.23 18.178 10.753c1.706 1.95-.133 6.012-1.058 7.76a66 66 0 0 0-3.923-5.517 1.143 1.143 0 1 0-1.794 1.415 64 64 0 0 1 3.811 5.365c-2.134.578-6.02 1.374-7.278-.064-1.766-2.02-3.773-14.65-3.773-14.65" clip-rule="evenodd"/></svg>
